Arcticons/scalable/apps/blackberrymessenger.svg

<svg id="Layer_2" data-name="Layer 2" viewBox="0 0 48 48" xmlns="http://www.w3.org/2000/svg">
 <defs>
  <style>.cls-1{fill:none;stroke:#fff;stroke-linecap:round;stroke-linejoin:round;}</style>
 </defs>
 <path class="cls-1" d="m41.47 7.28h-34.94a2 2 0 0 0-2 1.88v22.25a2 2 0 0 0 2 1.88h2.61v7.43l8.25-7.43h24.08a2 2 0 0 0 2-1.88v-22.25a2 2 0 0 0-2-1.88zm-29.42 10.63h3.4c2.2 0 2.73 1.09 2.73 1.95 0 1.21-0.79 2.53-3.56 2.53h-3.54zm3.8-2.25h-3.54l1-4.47h3.4c2.21 0 2.74 1.08 2.74 1.94-0.04 1.22-0.83 2.53-3.6 2.53zm6.61 13.73h-3.54l1-4.48h3.4c2.18 0 2.68 1.09 2.68 1.95 0 1.22-0.77 2.53-3.54 2.53zm1.32-7h-3.54l1-4.48h3.41c2.2 0 2.73 1.09 2.73 1.95-0.04 1.21-0.83 2.53-3.6 2.53zm1.22-6.73h-3.53l1-4.47h3.4c2.21 0 2.73 1.08 2.73 1.94-0.04 1.22-0.82 2.53-3.6 2.53zm7 11h-3.5l1-4.47h3.4c2.21 0 2.73 1.09 2.73 1.94-0.04 1.22-0.82 2.53-3.63 2.53zm1.32-7h-3.5l1-4.48h3.4c2.2 0 2.73 1.09 2.73 1.95-0.03 1.22-0.82 2.53-3.59 2.53z"/>
</svg>

<svg id="Layer_2" data-name="Layer 2" xmlns="http://www.w3.org/2000/svg" viewBox="0 0 48 48"><defs><style>.cls-1{fill:none;stroke:#fff;stroke-linecap:round;stroke-linejoin:round;}</style></defs><path class="cls-1" d="M41.47,7.28H6.53a2,2,0,0,0-2,1.88V31.41a2,2,0,0,0,2,1.88H9.14v7.43l8.25-7.43H41.47a2,2,0,0,0,2-1.88V9.16A2,2,0,0,0,41.47,7.28ZM12.05,17.91h3.4c2.2,0,2.73,1.09,2.73,1.95,0,1.21-.79,2.53-3.56,2.53H11.08Zm3.8-2.25H12.31l1-4.47h3.4c2.21,0,2.74,1.08,2.74,1.94C19.41,14.35,18.62,15.66,15.85,15.66Zm6.61,13.73H18.92l1-4.48h3.4C25.5,24.91,26,26,26,26.86,26,28.08,25.23,29.39,22.46,29.39Zm1.32-7H20.24l1-4.48h3.41c2.2,0,2.73,1.09,2.73,1.95C27.34,21.07,26.55,22.39,23.78,22.39ZM25,15.66H21.47l1-4.47h3.4c2.21,0,2.73,1.08,2.73,1.94C28.56,14.35,27.78,15.66,25,15.66Zm7,11H28.5l1-4.47h3.4c2.21,0,2.73,1.09,2.73,1.94C35.59,25.35,34.81,26.66,32,26.66Zm1.32-7H29.82l1-4.48h3.4c2.2,0,2.73,1.09,2.73,1.95C36.92,18.35,36.13,19.66,33.36,19.66Z"/></svg>
